public/western-piece-design/stone.svg

<?xml version="1.0" encoding="UTF-8" standalone="no"?>
<svg
   version="1.1"
   width="32"
   height="32"
   id="svg13"
   sodipodi:docname="stone.svg"
   inkscape:version="1.3 (0e150ed6c4, 2023-07-21)"
   xmlns:inkscape="http://www.inkscape.org/namespaces/inkscape"
   xmlns:sodipodi="http://sodipodi.sourceforge.net/DTD/sodipodi-0.dtd"
   xmlns="http://www.w3.org/2000/svg"
   xmlns:svg="http://www.w3.org/2000/svg">
  <sodipodi:namedview
     id="namedview13"
     pagecolor="#ffffff"
     bordercolor="#000000"
     borderopacity="0.25"
     inkscape:showpageshadow="2"
     inkscape:pageopacity="0.0"
     inkscape:pagecheckerboard="0"
     inkscape:deskcolor="#d1d1d1"
     inkscape:zoom="10.507607"
     inkscape:cx="3.901935"
     inkscape:cy="17.844215"
     inkscape:window-width="1920"
     inkscape:window-height="974"
     inkscape:window-x="-11"
     inkscape:window-y="-11"
     inkscape:window-maximized="1"
     inkscape:current-layer="svg13" />
  <defs
     id="defs1">
    <style
       id="style1">&#10;      g {&#10;        stroke-width: 1.3;&#10;        stroke: black;&#10;        fill: none;&#10;      }&#10;    </style>
  </defs>
  <!-- cannon -->
  <!-- guard -->
  <!-- elephant -->
  <!-- knight -->
  <!-- pawn -->
  <!-- rook -->
  <!-- general -->
  <g
     id="g4"
     transform="matrix(1.2230995,0,0,1.2451115,-17.980577,-6.1779781)"
     style="fill:#000000;stroke-width:1.2582;stroke:none;fill-opacity:1">
    <path
       style="color:#000000;stroke-linecap:round;stroke-linejoin:round;-inkscape-stroke:none;paint-order:stroke fill markers;stroke:none;fill:#000000;fill-opacity:1"
       d="m 34.267578,16.044922 a 0.62737271,0.62737271 0 0 0 -0.582031,0.06641 l -3.917969,2.685547 a 0.62737271,0.62737271 0 0 0 -0.271484,0.494141 l -0.181641,4.90625 a 0.62737271,0.62737271 0 0 0 0.390625,0.605468 l 2.277344,0.925782 A 0.62737271,0.62737271 0 0 0 32.25,25.773437 c 0,0 5.531107,-0.275547 6.847656,-0.371093 0.462491,-0.03356 0.865771,-0.243465 1.13086,-0.519532 0.265088,-0.276066 0.406617,-0.595759 0.49414,-0.884765 0.175048,-0.578013 0.140625,-1.105469 0.140625,-1.105469 a 0.62737271,0.62737271 0 0 0 -0.0078,-0.07617 l -0.728516,-4.166015 a 0.62737271,0.62737271 0 0 0 -0.390625,-0.476563 z m -0.146484,1.289062 4.830078,1.88086 0.658203,3.759765 c 4.52e-4,0.01751 0.0098,0.343922 -0.08594,0.660157 -0.04916,0.162317 -0.124559,0.299121 -0.201171,0.378906 -0.07661,0.07979 -0.139102,0.123993 -0.314454,0.136719 -1.209704,0.08779 -6.463145,0.352322 -6.68164,0.363281 l -1.742188,-0.708985 0.154297,-4.152343 z"
       id="path2" />
    <path
       style="color:#000000;stroke-linecap:round;stroke-linejoin:round;-inkscape-stroke:none;paint-order:stroke fill markers;stroke:none;fill:#000000;fill-opacity:1"
       d="m 31.152344,9.8066406 c -2.189759,-0.1504002 -4.823671,0.3893614 -7.177735,0.9960934 -3.138752,0.808977 -5.742187,1.816407 -5.742187,1.816407 A 0.62737271,0.62737271 0 0 0 17.9375,12.855469 l -3.097656,4.628906 a 0.62737271,0.62737271 0 0 0 -0.101563,0.279297 c 0,0 -0.181257,1.526954 0.257813,3.107422 0.219534,0.790234 0.599525,1.615846 1.279297,2.259765 0.679771,0.64392 1.661479,1.070313 2.912109,1.070313 4.400205,0 10.282973,-0.347594 10.550781,-0.363281 a 0.62730998,0.62730998 0 0 0 0.201172,0.08398 0.62730998,0.62730998 0 0 0 0.628906,-0.626953 v -0.0918 a 0.62737271,0.62737271 0 0 0 -0.664062,-0.626953 c 0,0 -6.286594,0.369141 -10.716797,0.36914 -0.981814,0 -1.592445,-0.292296 -2.048828,-0.724609 C 16.682289,21.78839 16.384194,21.1799 16.205078,20.535156 15.862263,19.301163 15.983891,18.123789 15.994141,18.015625 l 2.865234,-4.28125 c 0.151096,-0.05801 2.465149,-0.953225 5.427734,-1.716797 3.05742,-0.788014 6.66489,-1.29913 8.439453,-0.632812 1.874162,0.703715 2.703452,2.198357 3.103516,3.599609 0.400064,1.401252 0.318359,2.621094 0.318359,2.621094 a 0.62730998,0.62730998 0 0 0 0.582032,0.667968 0.62730998,0.62730998 0 0 0 0.669922,-0.582031 c 0,0 0.100343,-1.420065 -0.365235,-3.050781 C 36.569579,13.009909 35.485335,11.081069 33.167969,10.210938 32.563728,9.9840556 31.882263,9.856774 31.152344,9.8066406 Z"
       id="path3" />
  </g>
</svg>

<?xml version="1.0" encoding="UTF-8" standalone="no"?>
<svg
   version="1.1"
   width="32"
   height="32"
   id="svg13"
   sodipodi:docname="stone.svg"
   inkscape:version="1.3 (0e150ed6c4, 2023-07-21)"
   xmlns:inkscape="http://www.inkscape.org/namespaces/inkscape"
   xmlns:sodipodi="http://sodipodi.sourceforge.net/DTD/sodipodi-0.dtd"
   xmlns="http://www.w3.org/2000/svg"
   xmlns:svg="http://www.w3.org/2000/svg">
  <sodipodi:namedview
     id="namedview13"
     pagecolor="#ffffff"
     bordercolor="#000000"
     borderopacity="0.25"
     inkscape:showpageshadow="2"
     inkscape:pageopacity="0.0"
     inkscape:pagecheckerboard="0"
     inkscape:deskcolor="#d1d1d1"
     inkscape:zoom="10.507607"
     inkscape:cx="3.901935"
     inkscape:cy="17.844215"
     inkscape:window-width="1920"
     inkscape:window-height="974"
     inkscape:window-x="-11"
     inkscape:window-y="-11"
     inkscape:window-maximized="1"
     inkscape:current-layer="svg13" />
  <defs
     id="defs1">
    <style
       id="style1">&#10;      g {&#10;        stroke-width: 1.3;&#10;        stroke: black;&#10;        fill: none;&#10;      }&#10;    </style>
  </defs>
  <!-- cannon -->
  <!-- guard -->
  <!-- elephant -->
  <!-- knight -->
  <!-- pawn -->
  <!-- rook -->
  <!-- general -->
  <g
     id="g4"
     transform="matrix(1.2230995,0,0,1.2451115,-17.980577,-6.1779781)"
     style="fill:#000000;stroke-width:1.2582;stroke:none;fill-opacity:1">
    <path
       id="path2"
       style="color:#000000;stroke-linecap:round;stroke-linejoin:round;-inkscape-stroke:none;paint-order:stroke fill markers;stroke:none;fill:#000000;fill-opacity:1"
       d="M 30.311783 9.7806326 C 28.308486 9.7914851 26.033629 10.272492 23.973825 10.803382 C 20.835077 11.612359 18.233095 12.619861 18.233095 12.619861 A 0.62737271 0.62737271 0 0 0 17.937675 12.855156 L 14.839757 17.484197 A 0.62737271 0.62737271 0 0 0 14.737557 17.763414 C 14.737557 17.763414 14.55718 19.290413 14.996249 20.870879 C 15.215783 21.661113 15.595567 22.487363 16.275338 23.131282 C 16.955109 23.775201 17.937392 24.201091 19.18802 24.201091 C 23.191814 24.201091 28.214707 23.924367 29.326517 23.860697 L 29.313743 24.197953 A 0.62737271 0.62737271 0 0 0 29.704975 24.803446 L 31.982104 25.728941 A 0.62737271 0.62737271 0 0 0 32.250378 25.772862 C 32.250378 25.772862 37.781188 25.498211 39.097736 25.402665 C 39.560226 25.369105 39.963227 25.159513 40.228316 24.883447 C 40.493404 24.607381 40.635821 24.287742 40.723344 23.998737 C 40.898392 23.420724 40.863868 22.892849 40.863868 22.892849 A 0.62737271 0.62737271 0 0 0 40.855884 22.815986 L 40.127714 18.649693 A 0.62737271 0.62737271 0 0 0 39.736482 18.174396 L 37.408252 17.267726 C 37.404547 16.730018 37.348151 15.738544 37.034586 14.640263 C 36.569009 13.009548 35.485939 11.080569 33.168575 10.210438 C 32.564335 9.9835563 31.881653 9.8574327 31.151734 9.8072994 C 30.878015 9.7884994 30.597969 9.7790822 30.311783 9.7806326 z M 30.599219 11.077893 C 31.439037 11.083632 32.171693 11.177122 32.726243 11.385346 C 34.600404 12.08906 35.430486 13.582543 35.830549 14.983794 C 36.024347 15.662584 36.102208 16.296428 36.133954 16.772037 L 34.267218 16.044191 A 0.62737271 0.62737271 0 0 0 33.685959 16.111642 L 29.767252 18.797144 A 0.62737271 0.62737271 0 0 0 29.495785 19.291264 L 29.372827 22.605789 C 28.098622 22.676982 23.058533 22.944615 19.18802 22.944614 C 18.206207 22.944614 17.595625 22.653786 17.139242 22.221474 C 16.68286 21.789168 16.384192 21.179935 16.205076 20.535192 C 15.862262 19.3012 15.98404 18.124128 15.99429 18.015964 L 18.859066 13.733592 C 19.010162 13.675582 21.324229 12.781077 24.286811 12.017506 C 26.388785 11.475746 28.75162 11.065268 30.599219 11.077893 z M 34.120307 17.333608 L 38.950824 19.214401 L 39.608732 22.974418 C 39.609184 22.991928 39.619838 23.318579 39.524099 23.634814 C 39.474939 23.79713 39.399505 23.934638 39.322893 24.014423 C 39.246284 24.094213 39.183663 24.138168 39.008311 24.150894 C 37.798608 24.238684 32.543925 24.50229 32.32543 24.513249 L 30.58325 23.804226 L 30.738146 19.65205 L 34.120307 17.333608 z " />
  </g>
</svg>
